X:236
T:Jack of Diamonds
C:Traditional Texas Fiddle Tune
N:Transcribed by Mike Stangeland
R:bluegrass
L:1/8
Q:1/4=220
M:4/4
K:A
z6 ag |: "A"a2 cB Ae cA | A,C EG AB cA | "E"dB zB Bc BA | GA Bc de fg | "A"a2 cB Ae cA | 
A,A A,A AB cA | "E"Bc de fg af |1 e"E"c BG "A"A2 ag :|2 e"E"c BG "A"A2 cB |: (3"A"cde ef ec BA | 
"D"dc ed fa ed | "A"ce df ec Ac | "E"BA GF ED CB, | "A"(3A,B,C (3EFG AE Ac | "D"BF Bc df ec | 
"E"ea gb fg af |1 e"E"c BG "A"A2 cB :|2 e"E"c BG "A"A4 | 


